X:1
T:Title
%%score { ( 1 3 ) | ( 2 4 5 ) }
L:1/8
M:4/4
K:Bb
V:1 treble nm="Grand Piano"
V:3 treble 
V:2 bass 
V:4 bass 
V:5 bass 
V:1
 z4 z2[Q:1/4=100] F2 | B6 z2 | A6 z2 | A6 z2 |[M:3/4] G6 |[M:1/4] [DF]2 |[M:4/4] d4 z4 | G6 z2 | %8
 [=EGc]2 [CEG]2 [CEA]2 [CEB]2 |[M:3/4] [EAc]2 [CEA]2 [CEG]2 |[M:1/4] [CEF]2 |[M:4/4] B6 z2 | %12
 A6 z2 | A6 z2 |[M:3/4] G6 |[M:1/4] [DF]2 |[M:4/4] d4 z4 | [=EG]2 [EA]2 [EB]2 [Ec]2 | d4 c4 | %19
 [DFB]6 z2 | [FBd]4 [^Fcd]4 | [F=Bd]6 [FB]2 | [=EBd]2 [EBc]2 [FAd]2 [FAc]2 | F6 z2 | %24
 [B,EG]4 [CFA]4 | B6 z2 | [=EBc]2 [CEG]2 [CEA]2 [CEB]2 | [EAc]2 [CEA]2 [G,CEG]2 [A,CEF]2 | %28
 [FBd]4 [^Fcd]4 | [F=Bd]6 [FB]2 | [=EBd]2 [EBc]2 [FAd]2 [FAc]2 | f2- [FAef-]2 [FBdf]2 [B,F]2 | %32
 [B,EG]2 [D^FA]2 [DGB]2 [DG=B]2 | [EGc]2 [Gd]2 [EGce]2 [EGc]2 | [FBdf]4 [EFA]4 |[M:3/4] [DFB]6 |] %36
V:2
 z8 | z2 F,2 z4 | [C,F,]2 (3z EE C,2 F,,2 | [C,F,]2 (3z EE C,2 A,,2 | %4
[M:3/4] [B,,F,B,]2 (3z B,B, [B,,F,B,]2 |[M:1/4] [B,,B,]>[A,,A,] | %6
[M:4/4] z2 =B,2[K:treble][K:bass] z4 | [C,G,C]2 (3z =B,B, [E,G,C]2 z2 | %8
 [C,,C,]2 [B,,B,]2 [A,,A,]2 [G,,G,]2 |[M:3/4] [F,,F,]2 [F,,F,]2 [G,,G,]2 |[M:1/4] [A,,A,]2 | %11
[M:4/4] [B,,B,]2 (3z DD B,,2 [F,,F,]2 | [C,F,]2 (3z EE C,2 F,,2 | [C,F,]2 (3z EE C,2 A,,2 | %14
[M:3/4] [B,,F,B,]2 (3z B,B, [B,,F,B,]2 |[M:1/4] [B,,B,]>[A,,A,] | %16
[M:4/4] z2 =B,2[K:treble][K:bass] z4 | [C,B,]2 [C,A,]2 [C,G,]2 [C,B,]2 | %18
 z2 B,2[K:treble][K:bass] z2 A,2 | B,2 F,2 B,,2 z2 | B,,2 B,2 A,,2 A,2 | %21
 G,,2 (3G,G,G, G,2 [G,,G,]2 | [C,,C,]2 [C,,C,]2 [F,,F,]2 [E,,E,]2 | %23
 [D,,D,]2 [C,,C,]2 [B,,,B,,]2 [D,,D,]2 | [E,,E,]2 [C,,C,]2 [F,,F,]2 [E,,E,]2 | %25
 [D,,D,]2 [C,,C,]2 [B,,,B,,]2 [B,,,B,,]2 | [C,,C,]2 [B,,B,]2 [A,,A,]2 [G,,G,]2 | %27
 [F,,F,]2 [F,,F,]2 G,,2 A,,2 | B,,2 B,2 A,,2 A,2 | G,,2 (3G,G,G, G,2 [G,,G,]2 | %30
 [C,,C,]2 [C,,C,]2 [F,,F,]2 [E,,E,]2 | [D,,D,]2 [C,,C,]2 [B,,,B,,]2 [D,,D,]2 | %32
 [E,,E,]2 [D,,D,]2 [G,,G,]2 [F,,F,]2 | [E,,E,]2 [D,,D,]2 [C,,C,]2 [E,,E,]2 | F,,2 F,2 F,,2 F,2 | %35
[M:3/4] B,,2 F,2 B,,2 |] %36
V:3
 x8 | [DF]2 (3[DF]FF [F,DF]2 [DFG]2 | [EF]2 (3[EF]FF [F,EF]2 [F,F]2 | %3
 [EF]2 (3[EF]FF [F,EF]2 [F,CEF]2 |[M:3/4] D2 (3[B,D]DD D2 |[M:1/4] x2 | %6
[M:4/4] [F=B]2 (3[FB]BB [FBe]2 [Bd]2 | E2 (3[=B,F]FF E2 ^F>G | x8 |[M:3/4] x6 |[M:1/4] x2 | %11
[M:4/4] [DF]2 (3[DF]FF [F,DF]2 [DFG]2 | [EF]2 (3[EF]FF [F,EF]2 [F,F]2 | %13
 [EF]2 (3[EF]FF [F,EF]2 [F,CEF]2 |[M:3/4] D2 (3[B,D]DD D2 |[M:1/4] x2 | %16
[M:4/4] [F=B]2 (3[FB]BB [FBe]2 [Bd]2 | x8 | [FB]2 (3[FB]BB [EA]2 (3[EA]AA | x8 | x8 | %21
 z2 (3B,B,B, B,2 e>d | x8 | B,2 [A,E]2 [B,D]2 z2 | x8 | [B,F]2 [B,E]2 [B,D]2 [FBd]2 | x8 | x8 | %28
 x8 | z2 (3=B,B,B, B,2 e>d | x8 | [FB]2 z2 z4 | x8 | x8 | z2 [B,D]2 z2 C2 |[M:3/4] B,2 z2 z2 |] %36
V:4
 x8 | [B,,F,]2 (3z DD B,,2 [F,,F,]2 | z2 F,2 z4 | z2 F,2 z4 |[M:3/4] z2 F,2 z2 |[M:1/4] x2 | %6
[M:4/4] [G,,G,]2 (3z[K:treble] FF[K:bass] G,,2 [G,=B,F]2 | z2 G,2 z4 | x8 |[M:3/4] x6 |[M:1/4] x2 | %11
[M:4/4] z2 F,2 z4 | z2 F,2 z4 | z2 E,2 z4 |[M:3/4] z2 F,2 z2 |[M:1/4] x2 | %16
[M:4/4] [G,,G,]2 (3z[K:treble] FF[K:bass] G,,2 [G,=B,F]2 | x8 | %18
 F,,2 (3z[K:treble] FF[K:bass] F,,2 (3z EE | x8 | x8 | x8 | x8 | x8 | x8 | x8 | x8 | x8 | x8 | x8 | %30
 x8 | x8 | x8 | x8 | x8 |[M:3/4] x6 |] %36
V:5
 x8 | z2 F,,2 z4 | z2 F,,2 z4 | z2 F,,2 z4 |[M:3/4] z2 F,,2 z2 |[M:1/4] x2 | %6
[M:4/4] z2 G,2[K:treble][K:bass] z4 | z2 D,2 z4 | x8 |[M:3/4] x6 |[M:1/4] x2 |[M:4/4] z2 F,,2 z4 | %12
 z2 F,,2 z4 | z2 F,,2 z4 |[M:3/4] z2 F,,2 z2 |[M:1/4] x2 |[M:4/4] z2 G,2[K:treble][K:bass] z4 | %17
 x8 | z2 F,2[K:treble][K:bass] z2 F,2 | x8 | x8 | x8 | x8 | x8 | x8 | x8 | x8 | x8 | x8 | x8 | x8 | %31
 x8 | x8 | x8 | x8 |[M:3/4] x6 |] %36

